craft2/public/assets/svgicons/branches/docbox-01.svg

<svg xmlns="http://www.w3.org/2000/svg" width="46.702" height="42.277" viewBox="0 0 46.702 42.277"><g stroke="#3B3735" stroke-width="2" stroke-linecap="round" stroke-linejoin="round" stroke-miterlimit="10" fill="none"><path d="M44.702 41.277h-42.702c-.552 0-1-.448-1-1v-21.139h44.702v21.139c0 .553-.448 1-1 1z"/><path d="M14.907 24.615h16.888v4.087h-16.888z"/><path d="M39.202 9.162h-31.702c-.552 0-1 .448-1 1v8.976h33.701v-8.976c.001-.552-.447-1-.999-1z"/><path d="M37.871 9.162h-29.04v-3.081c0-.552.448-1 1-1h27.039c.552 0 1 .448 1 1v3.081z"/><path d="M35.704 5.081h-24.706v-3.081c0-.552.448-1 1-1h22.706c.552 0 1 .448 1 1v3.081z"/><path d="M6.286 12.971l-5.286 6.167h44.702l-5.501-6.417"/></g></svg>

<?xml version="1.0" encoding="utf-8"?>
<!-- Generator: Adobe Illustrator 17.0.0, SVG Export Plug-In . SVG Version: 6.00 Build 0)  -->
<!DOCTYPE svg PUBLIC "-//W3C//DTD SVG 1.1//EN" "http://www.w3.org/Graphics/SVG/1.1/DTD/svg11.dtd">
<svg version="1.1" id="Layer_1" xmlns="http://www.w3.org/2000/svg" xmlns:xlink="http://www.w3.org/1999/xlink" x="0px" y="0px"
	 width="46.702px" height="42.277px" viewBox="0 0 46.702 42.277" enable-background="new 0 0 46.702 42.277" xml:space="preserve">
<g>
	<path fill="none" stroke="#3B3735" stroke-width="2" stroke-linecap="round" stroke-linejoin="round" stroke-miterlimit="10" d="
		M44.702,41.277H2c-0.552,0-1-0.448-1-1V19.138h44.702v21.139C45.702,40.83,45.254,41.277,44.702,41.277z"/>
	
		<rect x="14.907" y="24.615" fill="none" stroke="#3B3735" stroke-width="2" stroke-linecap="round" stroke-linejoin="round" stroke-miterlimit="10" width="16.888" height="4.087"/>
	<path fill="none" stroke="#3B3735" stroke-width="2" stroke-linecap="round" stroke-linejoin="round" stroke-miterlimit="10" d="
		M39.202,9.162H7.5c-0.552,0-1,0.448-1,1v8.976h33.701v-8.976C40.202,9.61,39.754,9.162,39.202,9.162z"/>
	<path fill="none" stroke="#3B3735" stroke-width="2" stroke-linecap="round" stroke-linejoin="round" stroke-miterlimit="10" d="
		M37.871,9.162H8.831V6.081c0-0.552,0.448-1,1-1h27.039c0.552,0,1,0.448,1,1V9.162z"/>
	<path fill="none" stroke="#3B3735" stroke-width="2" stroke-linecap="round" stroke-linejoin="round" stroke-miterlimit="10" d="
		M35.704,5.081H10.998V2c0-0.552,0.448-1,1-1h22.706c0.552,0,1,0.448,1,1V5.081z"/>
	
		<polyline fill="none" stroke="#3B3735" stroke-width="2" stroke-linecap="round" stroke-linejoin="round" stroke-miterlimit="10" points="
		6.286,12.971 1,19.138 45.702,19.138 40.201,12.721 	"/>
</g>
</svg>
